assets/ai/ai-impactstory-square.svg

<svg xmlns="http://www.w3.org/2000/svg" width="100%" height="100%" viewBox="-75.52 -43.52 599.04 599.04"><path d="M 48 32 C 21.5 32 0 53.5 0 80 L 0 432 C 0 458.5 21.5 480 48 480 L 400 480 C 426.5 480 448 458.5 448 432 L 448 80 C 448 53.5 426.5 32 400 32 L 48 32 z M 188.1582 96 C 193.93177 96 200.03813 97.585687 205.93164 99.119141 C 211.69172 100.61248 217.65024 102.15949 223.33008 102.21289 L 223.69141 102.24023 C 229.49157 102.24023 235.51696 100.85386 241.34375 99.480469 C 246.98385 98.186927 252.79767 96.800781 258.21094 96.800781 C 260.85084 96.800781 263.18507 97.106246 265.39844 97.746094 C 272.85174 99.932875 278.94445 106.10599 284.82422 112.05273 C 289.14384 116.42588 293.59802 120.94657 298.63867 124 C 303.65105 127.05335 309.67771 128.89463 315.51758 130.66797 C 323.55819 133.17447 331.86395 135.72049 337.27734 141.33398 C 342.54395 146.78742 344.67867 154.69353 346.94531 163.08008 C 348.57251 169.09346 350.2655 175.30625 353.23828 180.59961 C 356.05143 185.62614 360.39705 190.13463 364.58398 194.50781 C 370.42392 200.58763 376.46449 206.86641 378.53125 214.59961 C 380.59761 222.3062 378.50384 230.78643 376.50391 238.98633 C 375.05074 244.85284 373.5563 250.91964 373.625 256.67969 C 373.70482 262.73322 375.35873 268.97359 376.95898 275.01367 L 376.95703 275.01367 C 379.18371 283.38705 381.27634 291.29251 379.46289 298.65234 C 377.56965 306.25249 371.6365 312.61324 365.92969 318.75977 C 361.78353 323.23974 357.46351 327.86687 354.65039 333 C 351.82346 338.18704 350.2243 344.32017 348.67773 350.22656 C 346.55805 358.36011 344.35856 366.733 338.99805 372.35938 C 333.65157 377.91915 325.71694 380.32064 317.31641 382.86719 C 311.47698 384.64051 305.41173 386.49252 300.30469 389.50586 C 295.43743 392.41275 291.03697 396.71948 286.79688 400.89258 C 280.71662 406.89238 274.43745 413.06709 266.63672 415.17383 C 264.51782 415.73371 262.30427 416 259.83789 416 C 254.05115 416 247.94446 414.42729 242.06445 412.86719 C 236.31792 411.38702 230.34444 409.85584 224.67773 409.77344 L 224.29102 409.77344 C 218.49119 409.77344 212.46295 411.16015 206.62305 412.54688 C 200.99644 413.83992 195.17117 415.1875 189.75781 415.1875 C 187.11785 415.1875 184.78387 414.8803 182.58398 414.25391 C 175.14388 412.08067 169.03799 405.92071 163.14453 399.93359 C 158.85119 395.57342 154.38377 391.06664 149.34375 388.01367 C 144.34384 384.96053 138.30473 383.10646 132.46484 381.30664 C 124.42503 378.82671 116.11825 376.29239 110.69141 370.65234 C 105.45126 365.1989 103.30372 357.30652 101.03711 348.93359 C 99.410694 342.89397 97.717159 336.69401 94.730469 331.40039 C 91.930519 326.37365 87.596554 321.85225 83.396484 317.49219 C 77.556594 311.42552 71.518384 305.10696 69.464844 297.40039 C 67.398424 289.69379 69.476874 281.22702 71.490234 273.01367 C 72.930374 267.16027 74.422722 261.08039 74.357422 255.32031 C 74.290542 249.25366 72.623799 243.02661 71.037109 237 C 68.810179 228.62661 66.718332 220.71928 68.544922 213.35938 C 70.411672 205.75965 76.343861 199.40025 82.050781 193.24023 C 86.223811 188.78682 90.516608 184.13337 93.330078 179 C 96.169788 173.84005 97.771086 167.69296 99.291016 161.75977 C 101.4242 153.63972 103.62429 145.22717 108.98438 139.64062 C 114.3175 134.09385 122.26404 131.66571 130.66406 129.11914 C 136.51744 127.35924 142.58453 125.51916 147.67773 122.50586 C 152.57123 119.59909 156.94345 115.29362 161.18359 111.08008 C 167.26375 105.12023 173.55697 98.906686 181.34375 96.839844 C 183.47691 96.279837 185.69143 96 188.1582 96 z M 223.99805 117.03906 C 149.17121 117.03906 88.53125 179.26621 88.53125 255.98633 C 88.53125 332.73323 149.17121 394.96094 223.99805 394.96094 C 298.8245 394.96094 359.46484 332.73323 359.46484 255.98633 C 359.46484 179.26621 298.8245 117.03906 223.99805 117.03906 z M 224.02539 131.32031 C 292.89117 131.32031 348.71875 187.14826 348.71875 255.98828 C 348.71875 324.8549 292.89117 380.68164 224.02539 380.68164 C 155.17225 380.68164 99.345703 324.85489 99.345703 255.98828 C 99.345703 187.14825 155.17188 131.32031 224.02539 131.32031 z M 211.9707 170.32031 C 209.06425 170.32031 206.71875 172.6662 206.71875 175.59961 L 206.71875 197.93359 C 206.71875 200.867 209.06385 203.1875 211.9707 203.1875 L 238.27734 203.1875 C 241.18381 203.1875 243.53125 200.867 243.53125 197.93359 L 243.53125 175.59961 C 243.53125 172.67971 241.1707 170.32031 238.27734 170.32031 L 211.9707 170.32031 z M 192.26562 221.58789 C 189.35879 221.58789 186.99805 223.92008 186.99805 226.85352 L 186.99805 249.1875 C 186.99805 252.09398 189.35879 254.43945 192.26562 254.43945 L 206.71875 254.43945 L 206.71875 301.80078 L 192.26562 301.80078 C 189.35879 301.80078 186.99805 304.13298 186.99805 307.06641 L 186.99805 330.70703 C 186.99805 333.62684 189.35879 335.98828 192.26562 335.98828 L 257.99805 335.98828 C 260.8914 335.98828 263.26367 333.62684 263.26367 330.70703 L 263.27734 330.70703 L 263.27734 307.05469 C 263.27734 304.12119 260.90514 301.78711 258.01172 301.78711 L 243.54492 301.78711 L 243.54492 226.85352 C 243.54492 223.92008 241.18433 221.58789 238.29102 221.58789 L 192.26562 221.58789 z"/></svg>

<svg xmlns="http://www.w3.org/2000/svg" width="100%" height="100%" viewBox="-75.52 -43.52 599.04 599.04"><path d="M48 32C21.5 32 0 53.5 0 80v352c0 26.5 21.5 48 48 48h352c26.5 0 48-21.5 48-48V80c0-26.5-21.5-48-48-48H48zm140.158 64c5.774 0 11.88 1.586 17.774 3.12 5.76 1.492 11.718 3.04 17.398 3.093l.361.027c5.8 0 11.826-1.386 17.653-2.76 5.64-1.293 11.454-2.68 16.867-2.68 2.64 0 4.974.306 7.187.946 7.454 2.187 13.546 8.36 19.426 14.307 4.32 4.373 8.774 8.894 13.815 11.947 5.012 3.053 11.039 4.895 16.879 6.668 8.04 2.506 16.346 5.052 21.76 10.666 5.266 5.453 7.4 13.36 9.667 21.746 1.628 6.013 3.32 12.226 6.293 17.52 2.813 5.026 7.159 9.535 11.346 13.908 5.84 6.08 11.88 12.358 13.947 20.092 2.067 7.706-.027 16.186-2.027 24.386-1.453 5.867-2.948 11.934-2.879 17.694.08 6.053 1.734 12.294 3.334 18.334h-.002c2.227 8.373 4.32 16.279 2.506 23.638-1.893 7.6-7.827 13.961-13.533 20.108-4.146 4.48-8.466 9.107-11.28 14.24-2.827 5.187-4.426 11.32-5.972 17.227-2.12 8.133-4.32 16.506-9.68 22.132-5.346 5.56-13.281 7.962-21.682 10.508-5.839 1.774-11.904 3.626-17.011 6.639-4.868 2.907-9.268 7.213-13.508 11.387-6.08 6-12.36 12.174-20.16 14.28-2.12.56-4.333.827-6.8.827-5.786 0-11.893-1.573-17.773-3.133-5.746-1.48-11.72-3.011-17.386-3.094h-.387c-5.8 0-11.828 1.387-17.668 2.774-5.627 1.293-11.452 2.64-16.865 2.64-2.64 0-4.974-.307-7.174-.933-7.44-2.173-13.546-8.333-19.44-14.32-4.293-4.36-8.76-8.867-13.8-11.92-5-3.053-11.04-4.908-16.88-6.707-8.039-2.48-16.346-5.015-21.773-10.655-5.24-5.453-7.387-13.345-9.654-21.718-1.626-6.04-3.32-12.24-6.307-17.534-2.8-5.026-7.133-9.548-11.334-13.908-5.84-6.066-11.878-12.385-13.931-20.092-2.067-7.706.012-16.173 2.025-24.386 1.44-5.854 2.933-11.934 2.867-17.694-.066-6.066-1.733-12.293-3.32-18.32-2.227-8.373-4.319-16.28-2.492-23.64 1.867-7.6 7.799-13.96 13.506-20.12 4.173-4.453 8.466-9.107 11.28-14.24 2.839-5.16 4.44-11.307 5.96-17.24 2.133-8.12 4.333-16.533 9.693-22.12 5.334-5.546 13.28-7.974 21.68-10.52 5.853-1.76 11.92-3.6 17.014-6.614 4.893-2.907 9.265-7.212 13.506-11.426 6.08-5.96 12.373-12.173 20.16-14.24 2.133-.56 4.347-.84 6.814-.84zm35.84 21.04c-74.827 0-135.467 62.226-135.467 138.946 0 76.747 60.64 138.975 135.467 138.975 74.827 0 135.467-62.228 135.467-138.975 0-76.72-60.64-138.947-135.467-138.947zm.027 14.28c68.866 0 124.694 55.828 124.694 124.668 0 68.867-55.828 124.694-124.694 124.694-68.853 0-124.68-55.827-124.68-124.694 0-68.84 55.827-124.668 124.68-124.668zm-12.054 39a5.25 5.25 0 00-5.252 5.28v22.334a5.229 5.229 0 005.252 5.254h26.306a5.23 5.23 0 005.254-5.254V175.6c0-2.92-2.36-5.28-5.254-5.28h-26.306zm-19.705 51.268a5.252 5.252 0 00-5.268 5.266v22.333c0 2.907 2.36 5.252 5.268 5.252h14.453v47.362h-14.453a5.252 5.252 0 00-5.268 5.265v23.641c0 2.92 2.36 5.281 5.268 5.281h65.732c2.893 0 5.266-2.361 5.266-5.281h.013v-23.652a5.26 5.26 0 00-5.265-5.268h-14.467v-74.933a5.249 5.249 0 00-5.254-5.266h-46.025z"/></svg>
